icon/lg/knex.svg

<?xml version="1.0" encoding="UTF-8" standalone="no"?>
<svg viewBox="0 0 256 256" version="1.1" xmlns="http://www.w3.org/2000/svg" xmlns:xlink="http://www.w3.org/1999/xlink" preserveAspectRatio="xMidYMid" height="1em" width="1em">
  <g>
    <path d="M254.575575,142.027814 L223.064575,126.805814 L252.915575,112.844814 C255.230575,111.758814 256.589575,108.894814 254.988575,106.224814 L251.886575,102.633814 C249.884575,100.444814 247.710575,98.847814 245.069575,99.886814 L222.891575,108.246814 C222.407575,108.428814 221.876575,108.451814 221.378575,108.310814 L212.793575,105.878814 C212.156575,105.698814 211.472575,105.867814 210.992575,106.322814 L201.809575,115.039814 C199.751575,103.240814 194.955575,92.382814 188.068575,83.168814 L201.493575,83.063814 C202.071575,83.058814 202.602575,82.742814 202.881575,82.235814 L207.633575,73.616814 C207.880575,73.167814 208.271575,72.814814 208.742575,72.614814 L230.710575,63.247814 C232.059575,62.672814 232.889575,59.869814 232.630575,58.051814 L231.915575,51.491814 C231.331575,49.607814 228.686575,47.949814 227.421575,48.416814 L194.376575,59.934814 L205.612575,28.954814 C206.481575,26.549814 205.417575,23.564814 202.397575,22.807814 L197.664575,22.462814 C194.700575,22.330814 192.034575,22.737814 190.901575,25.340814 L181.130575,46.933814 C180.917575,47.404814 180.558575,47.795814 180.106575,48.048814 L172.316575,52.399814 C171.738575,52.722814 171.374575,53.325814 171.356575,53.986814 L171.026575,66.648814 C161.628575,60.044814 150.652575,55.542814 138.767575,53.831814 L148.192575,44.257814 C148.598575,43.844814 148.750575,43.245814 148.589575,42.690814 L145.854575,33.235814 C145.712575,32.743814 145.738575,32.217814 145.929575,31.742814 L154.840575,9.58581397 C155.388575,8.22581397 153.993575,5.65581397 152.523575,4.55381397 L147.380575,0.420813967 C145.634575,-0.497186033 142.591575,0.199813967 142.027575,1.42381397 L126.805575,32.935814 L112.844575,3.08481397 C111.758575,0.768813967 108.895575,-0.589186033 106.224575,1.01081397 L102.633575,4.11381397 C100.444575,6.11581397 98.8475746,8.28881397 99.8875746,10.930814 L108.246575,33.107814 C108.429575,33.592814 108.451575,34.122814 108.310575,34.620814 L105.879575,43.206814 C105.698575,43.842814 105.867575,44.526814 106.323575,45.006814 L115.039575,54.189814 C103.240575,56.248814 92.3825746,61.043814 83.1695746,67.930814 L83.0635746,54.506814 C83.0595746,53.927814 82.7425746,53.397814 82.2365746,53.117814 L73.6165746,48.365814 C73.1685746,48.118814 72.8155746,47.728814 72.6145746,47.257814 L63.2485746,25.288814 C62.6735746,23.939814 59.8705746,23.109814 58.0515746,23.369814 L51.4915746,24.083814 C49.6085746,24.668814 47.9495746,27.313814 48.4165746,28.577814 L59.9355746,61.623814 L28.9555746,50.387814 C26.5495746,49.517814 23.5645746,50.582814 22.8075746,53.602814 L22.4625746,58.335814 C22.3305746,61.298814 22.7375746,63.965814 25.3405746,65.097814 L46.9335746,74.868814 C47.4055746,75.082814 47.7965746,75.441814 48.0485746,75.893814 L52.4005746,83.683814 C52.7225746,84.260814 53.3265746,84.625814 53.9875746,84.642814 L66.6485746,84.972814 C60.0455746,94.370814 55.5425746,105.346814 53.8325746,117.231814 L44.2575746,107.806814 C43.8455746,107.400814 43.2465746,107.249814 42.6905746,107.409814 L33.2355746,110.144814 C32.7435746,110.287814 32.2185746,110.260814 31.7435746,110.069814 L9.58657457,101.158814 C8.22557457,100.611814 5.65657457,102.006814 4.55457457,103.475814 L0.420574568,108.619814 C-0.497425432,110.364814 0.200574568,113.407814 1.42457457,113.971814 L32.9355746,129.193814 L3.08457457,143.154814 C0.768574568,144.240814 -0.589425432,147.104814 1.01057457,149.774814 L4.11357457,153.365814 C6.11557457,155.554814 8.28957457,157.151814 10.9305746,156.112814 L33.1085746,147.752814 C33.5925746,147.570814 34.1225746,147.547814 34.6215746,147.688814 L43.2065746,150.120814 C43.8425746,150.300814 44.5275746,150.131814 45.0075746,149.676814 L54.1905746,140.959814 C56.2485746,152.758814 61.0445746,163.616814 67.9315746,172.830814 L54.5065746,172.935814 C53.9285746,172.940814 53.3975746,173.256814 53.1185746,173.763814 L48.3665746,182.382814 C48.1185746,182.831814 47.7285746,183.183814 47.2575746,183.385814 L25.2895746,192.751814 C23.9405746,193.326814 23.1095746,196.129814 23.3695746,197.947814 L24.0835746,204.507814 C24.6685746,206.391814 27.3135746,208.049814 28.5785746,207.582814 L61.6235746,196.064814 L50.3875746,227.044814 C49.5185746,229.449814 50.5825746,232.434814 53.6025746,233.191814 L58.3355746,233.536814 C61.2985746,233.668814 63.9655746,233.261814 65.0975746,230.658814 L74.8685746,209.065814 C75.0825746,208.594814 75.4415746,208.203814 75.8935746,207.950814 L83.6835746,203.599814 C84.2605746,203.276814 84.6255746,202.673814 84.6425746,202.012814 L84.9735746,189.350814 C94.3715746,195.954814 105.346575,200.456814 117.232575,202.167814 L107.806575,211.741814 C107.401575,212.154814 107.249575,212.753814 107.410575,213.308814 L110.145575,222.763814 C110.287575,223.255814 110.260575,223.781814 110.069575,224.256814 L101.158575,246.413814 C100.611575,247.773814 102.006575,250.343814 103.476575,251.445814 L108.619575,255.578814 C110.364575,256.496814 113.407575,255.799814 113.972575,254.575814 L129.193575,223.063814 L143.155575,252.914814 C144.241575,255.230814 147.104575,256.588814 149.775575,254.988814 L153.365575,251.885814 C155.554575,249.883814 157.152575,247.709814 156.112575,245.068814 L147.753575,222.891814 C147.570575,222.406814 147.548575,221.876814 147.689575,221.378814 L150.120575,212.792814 C150.300575,212.156814 150.131575,211.472814 149.676575,210.992814 L140.960575,201.808814 C152.758575,199.750814 163.617575,194.955814 172.830575,188.067814 L172.936575,201.493814 C172.940575,202.071814 173.257575,202.602814 173.763575,202.881814 L182.383575,207.633814 C182.831575,207.880814 183.184575,208.270814 183.385575,208.741814 L192.751575,230.710814 C193.326575,232.059814 196.129575,232.889814 197.948575,232.629814 L204.507575,231.915814 C206.391575,231.330814 208.049575,228.685814 207.583575,227.421814 L196.064575,194.375814 L227.044575,205.611814 C229.450575,206.481814 232.435575,205.416814 233.192575,202.396814 L233.537575,197.663814 C233.669575,194.700814 233.261575,192.033814 230.659575,190.901814 L209.066575,181.130814 C208.594575,180.916814 208.203575,180.557814 207.950575,180.105814 L203.599575,172.315814 C203.276575,171.738814 202.673575,171.373814 202.012575,171.356814 L189.350575,171.026814 C195.954575,161.628814 200.456575,150.652814 202.167575,138.767814 L211.742575,148.192814 C212.154575,148.598814 212.753575,148.749814 213.308575,148.589814 L222.764575,145.854814 C223.255575,145.711814 223.781575,145.738814 224.256575,145.929814 L246.413575,154.840814 C247.774575,155.387814 250.343575,153.992814 251.445575,152.523814 L255.578575,147.379814 C256.497575,145.634814 255.799575,142.591814 254.575575,142.027814 L254.575575,142.027814 Z M181.734575,119.641814 L165.799575,119.641814 C164.640575,114.374814 162.410575,109.512814 159.346575,105.290814 L170.515575,94.121814 C176.286575,101.353814 180.259575,110.082814 181.734575,119.641814 L181.734575,119.641814 Z M148.814575,95.364814 C144.433575,92.563814 139.455575,90.616814 134.107575,89.768814 L134.107575,73.975814 C143.752575,75.053814 152.631575,78.652814 160.076575,84.102814 L148.814575,95.364814 L148.814575,95.364814 Z M146.874575,127.999814 C146.874575,138.423814 138.424575,146.874814 127.999575,146.874814 C117.575575,146.874814 109.124575,138.423814 109.124575,127.999814 C109.124575,117.575814 117.575575,109.124814 127.999575,109.124814 C138.424575,109.124814 146.874575,117.575814 146.874575,127.999814 L146.874575,127.999814 Z M119.641575,74.264814 L119.641575,90.199814 C114.374575,91.359814 109.512575,93.589814 105.291575,96.652814 L94.1215746,85.483814 C101.354575,79.712814 110.082575,75.739814 119.641575,74.264814 L119.641575,74.264814 Z M95.3645746,107.184814 C92.5645746,111.566814 90.6165746,116.544814 89.7695746,121.891814 L73.9755746,121.891814 C75.0545746,112.246814 78.6535746,103.367814 84.1025746,95.922814 L95.3645746,107.184814 L95.3645746,107.184814 Z M74.2655746,136.357814 L90.2005746,136.357814 C91.3595746,141.624814 93.5895746,146.486814 96.6535746,150.708814 L85.4835746,161.877814 C79.7135746,154.645814 75.7405746,145.916814 74.2655746,136.357814 L74.2655746,136.357814 Z M107.184575,160.634814 C111.566575,163.435814 116.544575,165.382814 121.891575,166.230814 L121.891575,182.023814 C112.247575,180.945814 103.367575,177.346814 95.9235746,171.896814 L107.184575,160.634814 L107.184575,160.634814 Z M136.358575,181.734814 L136.358575,165.799814 C141.624575,164.639814 146.487575,162.409814 150.708575,159.346814 L161.877575,170.515814 C154.645575,176.286814 145.916575,180.259814 136.358575,181.734814 L136.358575,181.734814 Z M160.635575,148.814814 C163.435575,144.432814 165.382575,139.454814 166.230575,134.107814 L182.024575,134.107814 C180.945575,143.752814 177.346575,152.631814 171.897575,160.076814 L160.635575,148.814814 L160.635575,148.814814 Z" fill="#E16426"/>
  </g>
</svg>

<svg width="256" height="256" xmlns="http://www.w3.org/2000/svg" preserveAspectRatio="xMidYMid"><path d="m254.576 142.028-31.511-15.222 29.85-13.961c2.316-1.086 3.675-3.95 2.074-6.62l-3.102-3.591c-2.002-2.19-4.176-3.786-6.817-2.747l-22.178 8.36a2.425 2.425 0 0 1-1.513.064l-8.585-2.432a1.876 1.876 0 0 0-1.801.444l-9.183 8.717a74.585 74.585 0 0 0-13.741-31.871l13.425-.105a1.6 1.6 0 0 0 1.388-.828l4.752-8.62a2.286 2.286 0 0 1 1.109-1.001l21.968-9.367c1.349-.575 2.179-3.378 1.92-5.196l-.715-6.56c-.584-1.884-3.23-3.542-4.494-3.075l-33.045 11.518 11.236-30.98c.869-2.405-.195-5.39-3.215-6.147l-4.733-.345c-2.964-.132-5.63.275-6.763 2.878l-9.771 21.593a2.422 2.422 0 0 1-1.024 1.115l-7.79 4.35a1.876 1.876 0 0 0-.96 1.588l-.33 12.662a74.502 74.502 0 0 0-32.26-12.817l9.426-9.574a1.6 1.6 0 0 0 .397-1.567l-2.735-9.455a2.297 2.297 0 0 1 .075-1.493l8.91-22.157c.549-1.36-.846-3.93-2.316-5.032L147.38.42c-1.746-.918-4.79-.221-5.353 1.003l-15.222 31.512-13.961-29.851c-1.086-2.316-3.95-3.674-6.62-2.074l-3.591 3.103c-2.19 2.002-3.786 4.175-2.746 6.817l8.359 22.177c.183.485.205 1.015.064 1.513l-2.431 8.586a1.87 1.87 0 0 0 .444 1.8l8.716 9.183a74.588 74.588 0 0 0-31.87 13.74l-.106-13.423a1.6 1.6 0 0 0-.827-1.39l-8.62-4.751a2.293 2.293 0 0 1-1.002-1.108l-9.366-21.97c-.575-1.348-3.378-2.178-5.197-1.918l-6.56.714c-1.883.585-3.542 3.23-3.075 4.494l11.519 33.046-30.98-11.236c-2.406-.87-5.391.195-6.148 3.215l-.345 4.733c-.132 2.963.275 5.63 2.878 6.762l21.593 9.77a2.42 2.42 0 0 1 1.115 1.026l4.352 7.79c.322.577.926.942 1.587.959l12.66.33a74.5 74.5 0 0 0-12.815 32.259l-9.575-9.425a1.6 1.6 0 0 0-1.567-.397l-9.455 2.735a2.287 2.287 0 0 1-1.492-.075l-22.157-8.911c-1.361-.547-3.93.848-5.032 2.317L.42 108.62c-.918 1.745-.22 4.788 1.004 5.352l31.51 15.222-29.85 13.96c-2.316 1.087-3.674 3.95-2.074 6.62l3.103 3.592c2.002 2.189 4.176 3.786 6.817 2.747l22.178-8.36a2.425 2.425 0 0 1 1.513-.064l8.585 2.432c.636.18 1.32.01 1.8-.444l9.184-8.717a74.585 74.585 0 0 0 13.74 31.87l-13.424.106a1.6 1.6 0 0 0-1.388.828l-4.752 8.619a2.302 2.302 0 0 1-1.11 1.003l-21.967 9.366c-1.35.575-2.18 3.378-1.92 5.196l.714 6.56c.585 1.884 3.23 3.542 4.495 3.075l33.045-11.518-11.236 30.98c-.87 2.405.195 5.39 3.215 6.147l4.733.345c2.963.132 5.63-.275 6.762-2.878l9.77-21.593a2.43 2.43 0 0 1 1.026-1.115l7.79-4.351c.577-.323.942-.926.959-1.587l.33-12.662a74.497 74.497 0 0 0 32.26 12.817l-9.426 9.574a1.602 1.602 0 0 0-.396 1.567l2.735 9.455a2.297 2.297 0 0 1-.076 1.493l-8.911 22.157c-.547 1.36.848 3.93 2.318 5.032l5.143 4.133c1.745.918 4.788.22 5.353-1.003l15.22-31.512 13.963 29.85c1.086 2.317 3.949 3.675 6.62 2.075l3.59-3.103c2.189-2.002 3.787-4.176 2.747-6.817l-8.36-22.177a2.418 2.418 0 0 1-.063-1.513l2.43-8.586c.18-.636.012-1.32-.443-1.8l-8.716-9.184a74.568 74.568 0 0 0 31.87-13.741l.106 13.426c.004.578.32 1.109.827 1.388l8.62 4.752c.448.247.8.637 1.002 1.108l9.366 21.969c.575 1.349 3.378 2.179 5.197 1.919l6.559-.714c1.884-.585 3.542-3.23 3.076-4.494l-11.52-33.046 30.98 11.236c2.407.87 5.392-.195 6.149-3.215l.345-4.733c.132-2.963-.276-5.63-2.878-6.762l-21.593-9.771a2.427 2.427 0 0 1-1.116-1.025l-4.351-7.79a1.875 1.875 0 0 0-1.587-.96l-12.662-.33a74.502 74.502 0 0 0 12.817-32.258l9.575 9.425a1.6 1.6 0 0 0 1.566.397l9.456-2.735a2.287 2.287 0 0 1 1.492.075l22.157 8.91c1.36.548 3.93-.847 5.032-2.316l4.133-5.144c.919-1.745.22-4.788-1.003-5.352Zm-72.841-22.386H165.8a38.507 38.507 0 0 0-6.453-14.351l11.169-11.17c5.77 7.233 9.744 15.962 11.219 25.52Zm-32.92-24.277a38.452 38.452 0 0 0-14.707-5.596V73.976a54.057 54.057 0 0 1 25.969 10.127l-11.262 11.262ZM146.875 128c0 10.424-8.45 18.875-18.875 18.875-10.424 0-18.875-8.451-18.875-18.875s8.45-18.875 18.875-18.875 18.875 8.45 18.875 18.875Zm-27.233-53.735V90.2a38.527 38.527 0 0 0-14.35 6.453l-11.17-11.17c7.233-5.77 15.96-9.743 25.52-11.218Zm-24.277 32.92a38.463 38.463 0 0 0-5.595 14.707H73.976a54.077 54.077 0 0 1 10.127-25.97l11.262 11.263Zm-21.1 29.173h15.936a38.507 38.507 0 0 0 6.453 14.35l-11.17 11.17c-5.77-7.232-9.743-15.961-11.218-25.52Zm32.92 24.277a38.465 38.465 0 0 0 14.707 5.596v15.793a54.053 54.053 0 0 1-25.968-10.127l11.26-11.262Zm29.174 21.1V165.8a38.534 38.534 0 0 0 14.35-6.453l11.169 11.169c-7.232 5.77-15.961 9.744-25.52 11.219Zm24.277-32.92a38.48 38.48 0 0 0 5.595-14.707h15.794a54.077 54.077 0 0 1-10.127 25.969l-11.262-11.262Z" fill="#E16426"/></svg>
